.local/share/icons/Gruvbox-Plus-Dark/mimetypes/scalable/application-torrent.svg

<svg width="256" height="256" viewBox="0 0 256 256" fill="none" xmlns="http://www.w3.org/2000/svg">
<g opacity="0.4" filter="url(#filter0_f)">
<path d="M55.0839 15.5636H155.608L216.009 75.7129L216.011 224.609C216.011 233.52 208.749 240.737 199.838 240.737H55.0838C46.1734 240.737 39 233.564 39 224.654V31.6474C39 22.737 46.1734 15.5636 55.0838 15.5636H55.0839Z" fill="#282828"/>
</g>
<path d="M55.0839 15H155.608L216.009 75.1493L216.011 224.045C216.011 232.956 208.749 240.174 199.838 240.174H55.0838C46.1734 240.174 39 233 39 224.09V31.0838C39 22.1734 46.1734 15 55.0838 15H55.0839Z" fill="#ebdbb2"/>
<path opacity="0.2" d="M199.838 240.174C208.749 240.174 216.011 232.956 216.011 224.046L216.01 186.5H39V224.09C39 233 46.1734 240.174 55.0838 240.174H199.838Z" fill="url(#paint0_linear)"/>
<path fill-rule="evenodd" clip-rule="evenodd" d="M87.1005 65.7468C98.0546 54.5087 112.929 48.13 128.484 48L128.548 55.9997C115.067 56.1124 102.176 61.6407 92.6827 71.3803C83.1891 81.12 77.8622 94.2822 77.8622 108C77.8622 121.718 83.1891 134.88 92.6827 144.62C102.173 154.356 115.058 159.883 128.533 160H215V168H128.484C112.929 167.87 98.0546 161.491 87.1005 150.253C76.1464 139.015 70 123.828 70 108C70 92.1718 76.1464 76.9848 87.1005 65.7468ZM126.318 64.0596C132.699 63.7286 139.074 64.8408 144.982 67.3161L141.989 74.7137C137.155 72.6884 131.939 71.7784 126.718 72.0493C121.497 72.3201 116.399 73.765 111.793 76.2801C107.186 78.7951 103.184 82.3178 100.075 86.5946C96.9664 90.8715 94.8277 95.7963 93.813 101.015C92.7983 106.233 92.9328 111.616 94.2069 116.775C95.481 121.934 97.863 126.742 101.181 130.853C104.5 134.963 108.673 138.274 113.399 140.548C118.125 142.821 123.288 144.001 128.516 144.001H215V152.001H128.516C122.126 152.001 115.816 150.559 110.039 147.78C104.262 145.002 99.1623 140.955 95.1063 135.931C91.0503 130.907 88.139 125.03 86.5818 118.725C85.0246 112.419 84.8601 105.84 86.1003 99.4621C87.3405 93.0839 89.9544 87.0647 93.7542 81.8374C97.5539 76.6101 102.445 72.3046 108.076 69.2306C113.706 66.1567 119.936 64.3907 126.318 64.0596ZM136.504 81.2036C132.173 79.8668 127.586 79.6374 123.147 80.5357C118.709 81.434 114.556 83.4322 111.058 86.3535C107.56 89.2747 104.824 93.0287 103.092 97.2829C101.36 101.537 100.686 106.16 101.13 110.743C101.573 115.326 103.121 119.726 105.635 123.555C108.15 127.383 111.553 130.522 115.544 132.693C119.535 134.863 123.991 135.999 128.516 135.998H215V127.998H128.516C125.284 127.998 122.101 127.187 119.25 125.637C116.399 124.087 113.968 121.845 112.172 119.11C110.376 116.375 109.271 113.232 108.954 109.959C108.637 106.685 109.119 103.383 110.356 100.344C111.593 97.3056 113.547 94.6242 116.046 92.5376C118.545 90.451 121.51 89.0236 124.681 88.382C127.851 87.7404 131.128 87.9042 134.221 88.8591C137.315 89.8139 140.129 91.5303 142.414 93.8561L147.974 88.1994C144.774 84.9433 140.834 82.5404 136.504 81.2036Z" fill="url(#paint1_linear)"/>
<path fill-rule="evenodd" clip-rule="evenodd" d="M155.609 22.9787H55.0839C50.58 22.9787 46.9787 26.5799 46.9787 31.0838V224.09C46.9787 228.594 50.5799 232.195 55.0838 232.195H199.838C204.371 232.195 208.032 228.521 208.032 224.046V75.1493L155.609 22.9787ZM155.608 15H55.0839C46.1735 15 39 22.1734 39 31.0838V224.09C39 233 46.1734 240.174 55.0838 240.174H199.838C208.749 240.174 216.011 232.956 216.011 224.045L216.009 75.1493L155.608 15Z" fill="url(#paint2_linear)"/>
<path d="M69.3784 203.45H75.3484V200H59.8084V203.45H65.7784V221H69.3784V203.45ZM86.552 221.36C93.332 221.36 95.762 215.69 95.762 210.5C95.762 205.31 93.332 199.64 86.552 199.64C79.802 199.64 77.342 205.31 77.342 210.5C77.342 215.69 79.802 221.36 86.552 221.36ZM86.552 217.91C82.472 217.91 81.062 213.92 81.062 210.5C81.062 207.26 82.472 203.09 86.552 203.09C90.632 203.09 92.042 207.05 92.042 210.5C92.042 213.71 90.602 217.91 86.552 217.91ZM100.123 221H103.723V212.78H108.103L112.153 221H116.203L112.003 212.39C114.973 211.49 116.323 208.79 116.323 206.39C116.323 203.09 114.643 200 109.423 200H100.123V221ZM103.723 209.36V203.42H109.483C111.943 203.42 112.603 204.98 112.603 206.39C112.603 207.92 111.823 209.36 109.483 209.36H103.723ZM120.66 221H124.26V212.78H128.64L132.69 221H136.74L132.54 212.39C135.51 211.49 136.86 208.79 136.86 206.39C136.86 203.09 135.18 200 129.96 200H120.66V221ZM124.26 209.36V203.42H130.02C132.48 203.42 133.14 204.98 133.14 206.39C133.14 207.92 132.36 209.36 130.02 209.36H124.26ZM141.197 221H155.537V217.61H144.797V211.85H151.007V208.46H144.797V203.39H154.877V200H141.197V221ZM175.916 221V200H172.346V213.05C172.346 213.5 172.376 214.1 172.436 214.64C172.166 214.1 171.866 213.5 171.566 213.05L163.076 200H159.596V221H163.166V207.74C163.166 207.26 163.136 206.66 163.076 206.18C163.346 206.72 163.676 207.32 163.946 207.74L172.646 221H175.916ZM189.232 203.45H195.202V200H179.662V203.45H185.632V221H189.232V203.45Z" fill="url(#paint3_linear)"/>
<path opacity="0.25" d="M155.608 17V61.2306C155.608 70.141 162.867 77.1605 171.777 77.1605L216.009 77.1493V75.1493L155.608 17Z" fill="#282828"/>
<path d="M155.608 15V59.2306C155.608 68.141 162.867 75.1605 171.777 75.1605L216.009 75.1493L155.608 15Z" fill="url(#paint4_linear)"/>
<defs>
<filter id="filter0_f" x="23.8778" y="0.441412" width="207.255" height="255.418" filterUnits="userSpaceOnUse" color-interpolation-filters="sRGB">
<feFlood flood-opacity="0" result="BackgroundImageFix"/>
<feBlend mode="normal" in="SourceGraphic" in2="BackgroundImageFix" result="shape"/>
<feGaussianBlur stdDeviation="7.5611" result="effect1_foregroundBlur"/>
</filter>
<linearGradient id="paint0_linear" x1="39" y1="186.5" x2="39" y2="240.174" gradientUnits="userSpaceOnUse">
<stop offset="1e-07" stop-color="#b16286"/>
<stop offset="1" stop-color="#8f3f71"/>
</linearGradient>
<linearGradient id="paint1_linear" x1="70" y1="48" x2="70" y2="168" gradientUnits="userSpaceOnUse">
<stop offset="1e-07" stop-color="#b16286"/>
<stop offset="1" stop-color="#8f3f71"/>
</linearGradient>
<linearGradient id="paint2_linear" x1="39" y1="15" x2="39" y2="240.174" gradientUnits="userSpaceOnUse">
<stop offset="1e-07" stop-color="#b16286"/>
<stop offset="1" stop-color="#8f3f71"/>
</linearGradient>
<linearGradient id="paint3_linear" x1="39" y1="192" x2="39" y2="240" gradientUnits="userSpaceOnUse">
<stop offset="1e-07" stop-color="#b16286"/>
<stop offset="1" stop-color="#8f3f71"/>
</linearGradient>
<linearGradient id="paint4_linear" x1="155.608" y1="15" x2="155.608" y2="75.1605" gradientUnits="userSpaceOnUse">
<stop offset="1e-07" stop-color="#b16286"/>
<stop offset="1" stop-color="#8f3f71"/>
</linearGradient>
</defs>
</svg>

<svg width="256" height="256" fill="none" version="1.1" viewBox="0 0 256 256" xmlns="http://www.w3.org/2000/svg">
  <path d="m55.08 15h100.5l60.4 60.15 2e-3 148.9c0 8.911-7.262 16.13-16.17 16.13h-144.8c-8.91 0-16.08-7.174-16.08-16.08v-193c0-8.91 7.173-16.08 16.08-16.08h1e-4z" fill="#ebdbb2"/>
  <path d="m199.8 240.2c8.911 0 16.17-7.218 16.17-16.13l-1e-3 -37.55h-177v37.59c0 8.91 7.173 16.08 16.08 16.08h144.8z" fill="url(#paint0_linear)" opacity=".2"/>
  <path d="m87.1 65.75c10.95-11.24 25.83-17.62 41.38-17.75l0.064 8c-13.48 0.1127-26.37 5.641-35.87 15.38-9.494 9.74-14.82 22.9-14.82 36.62 0 13.72 5.327 26.88 14.82 36.62 9.49 9.736 22.38 15.26 35.85 15.38h86.47v8h-86.52c-15.56-0.13-30.43-6.509-41.38-17.75s-17.1-26.42-17.1-42.25c0-15.83 6.146-31.02 17.1-42.25zm39.22-1.687c6.381-0.331 12.76 0.7812 18.66 3.256l-2.993 7.398c-4.834-2.025-10.05-2.935-15.27-2.664-5.221 0.2708-10.32 1.716-14.92 4.231-4.607 2.515-8.609 6.038-11.72 10.31-3.109 4.277-5.247 9.202-6.262 14.42-1.015 5.218-0.8802 10.6 0.3939 15.76s3.656 9.967 6.974 14.08c3.319 4.11 7.492 7.421 12.22 9.695 4.726 2.273 9.889 3.453 15.12 3.453h86.48v8h-86.48c-6.39 0-12.7-1.442-18.48-4.221-5.777-2.778-10.88-6.825-14.93-11.85s-6.967-10.9-8.524-17.21c-1.557-6.306-1.722-12.88-0.4815-19.26 1.24-6.378 3.854-12.4 7.654-17.62 3.8-5.227 8.691-9.533 14.32-12.61 5.63-3.074 11.86-4.84 18.24-5.171zm10.19 17.14c-4.331-1.337-8.918-1.566-13.36-0.6679-4.438 0.8983-8.591 2.896-12.09 5.818-3.498 2.921-6.234 6.675-7.966 10.93-1.732 4.254-2.406 8.877-1.962 13.46 0.443 4.583 1.991 8.983 4.505 12.81 2.515 3.828 5.918 6.967 9.909 9.138 3.991 2.17 8.447 3.306 12.97 3.305h86.48v-8h-86.48c-3.232 0-6.415-0.811-9.266-2.361s-5.282-3.792-7.078-6.527-2.901-5.878-3.218-9.151c-0.317-3.274 0.165-6.576 1.402-9.615 1.237-3.038 3.191-5.72 5.69-7.806s5.464-3.514 8.635-4.156c3.17-0.6416 6.447-0.4778 9.54 0.4771 3.094 0.9548 5.908 2.671 8.193 4.997l5.56-5.657c-3.2-3.256-7.14-5.659-11.47-6.996z" clip-rule="evenodd" fill="url(#paint1_linear)" fill-rule="evenodd"/>
  <path d="m155.6 22.98h-100.5c-4.504 0-8.105 3.601-8.105 8.105v193c0 4.504 3.601 8.105 8.105 8.105h144.8c4.533 0 8.194-3.674 8.194-8.149v-148.9l-52.42-52.17zm-1e-3 -7.979h-100.5c-8.91 0-16.08 7.173-16.08 16.08v193c0 8.91 7.173 16.08 16.08 16.08h144.8c8.911 0 16.17-7.218 16.17-16.13l-2e-3 -148.9-60.4-60.15z" clip-rule="evenodd" fill="url(#paint2_linear)" fill-rule="evenodd"/>
  <path d="m69.38 203.4h5.97v-3.45h-15.54v3.45h5.97v17.55h3.6v-17.55zm17.17 17.91c6.78 0 9.21-5.67 9.21-10.86s-2.43-10.86-9.21-10.86c-6.75 0-9.21 5.67-9.21 10.86s2.46 10.86 9.21 10.86zm0-3.45c-4.08 0-5.49-3.99-5.49-7.41 0-3.24 1.41-7.41 5.49-7.41s5.49 3.96 5.49 7.41c0 3.21-1.44 7.41-5.49 7.41zm13.57 3.09h3.6v-8.22h4.38l4.05 8.22h4.05l-4.2-8.61c2.97-0.9 4.32-3.6 4.32-6 0-3.3-1.68-6.39-6.9-6.39h-9.3v21zm3.6-11.64v-5.94h5.76c2.46 0 3.12 1.56 3.12 2.97 0 1.53-0.78 2.97-3.12 2.97h-5.76zm16.94 11.64h3.6v-8.22h4.38l4.05 8.22h4.05l-4.2-8.61c2.97-0.9 4.32-3.6 4.32-6 0-3.3-1.68-6.39-6.9-6.39h-9.3v21zm3.6-11.64v-5.94h5.76c2.46 0 3.12 1.56 3.12 2.97 0 1.53-0.78 2.97-3.12 2.97h-5.76zm16.94 11.64h14.34v-3.39h-10.74v-5.76h6.21v-3.39h-6.21v-5.07h10.08v-3.39h-13.68v21zm34.72 0v-21h-3.57v13.05c0 0.45 0.03 1.05 0.09 1.59-0.27-0.54-0.57-1.14-0.87-1.59l-8.49-13.05h-3.48v21h3.57v-13.26c0-0.48-0.03-1.08-0.09-1.56 0.27 0.54 0.6 1.14 0.87 1.56l8.7 13.26h3.27zm13.32-17.55h5.97v-3.45h-15.54v3.45h5.97v17.55h3.6v-17.55z" fill="url(#paint3_linear)"/>
  <path d="m155.6 17v44.23c0 8.91 7.259 15.93 16.17 15.93l44.23-0.0112v-2l-60.4-58.15z" fill="#282828" opacity=".25"/>
  <path d="m155.6 15v44.23c0 8.91 7.259 15.93 16.17 15.93l44.23-0.0112-60.4-60.15z" fill="url(#paint4_linear)"/>
  <defs>
    <linearGradient id="paint0_linear" x1="39" x2="39" y1="186.5" y2="240.2" gradientUnits="userSpaceOnUse">
      <stop stop-color="#b16286" offset="1e-7"/>
      <stop stop-color="#8f3f71" offset="1"/>
    </linearGradient>
    <linearGradient id="paint1_linear" x1="70" x2="70" y1="48" y2="168" gradientUnits="userSpaceOnUse">
      <stop stop-color="#b16286" offset="1e-7"/>
      <stop stop-color="#8f3f71" offset="1"/>
    </linearGradient>
    <linearGradient id="paint2_linear" x1="39" x2="39" y1="15" y2="240.2" gradientUnits="userSpaceOnUse">
      <stop stop-color="#b16286" offset="1e-7"/>
      <stop stop-color="#8f3f71" offset="1"/>
    </linearGradient>
    <linearGradient id="paint3_linear" x1="39" x2="39" y1="192" y2="240" gradientUnits="userSpaceOnUse">
      <stop stop-color="#b16286" offset="1e-7"/>
      <stop stop-color="#8f3f71" offset="1"/>
    </linearGradient>
    <linearGradient id="paint4_linear" x1="155.6" x2="155.6" y1="15" y2="75.16" gradientUnits="userSpaceOnUse">
      <stop stop-color="#b16286" offset="1e-7"/>
      <stop stop-color="#8f3f71" offset="1"/>
    </linearGradient>
  </defs>
</svg>
